IconSet/eva icons.iconjar/icons/home-outline.svg

<svg xmlns="http://www.w3.org/2000/svg" viewBox="0 0 24 24"><g data-name="Layer 2"><g data-name="home"><rect width="24" height="24" opacity="0"/><path d="M20.42 10.18L12.71 2.3a1 1 0 0 0-1.42 0l-7.71 7.89A2 2 0 0 0 3 11.62V20a2 2 0 0 0 1.89 2h14.22A2 2 0 0 0 21 20v-8.38a2.07 2.07 0 0 0-.58-1.44zM10 20v-6h4v6zm9 0h-3v-7a1 1 0 0 0-1-1H9a1 1 0 0 0-1 1v7H5v-8.42l7-7.15 7 7.19z"/></g></g></svg>

<svg xmlns="http://www.w3.org/2000/svg" viewBox="0 0 24 24"><defs><style>.cls-1{fill:#fff;opacity:0;}.cls-2{fill:#231f20;}</style></defs><title>home</title><g id="Layer_2" data-name="Layer 2"><g id="home"><g id="home-2" data-name="home"><rect class="cls-1" width="24" height="24"/><path class="cls-2" d="M20.42,10.18,12.71,2.3a1,1,0,0,0-1.42,0L3.58,10.19A2,2,0,0,0,3,11.62V20a2,2,0,0,0,1.89,2H19.11A2,2,0,0,0,21,20V11.62A2.07,2.07,0,0,0,20.42,10.18ZM10,20V14h4v6Zm9,0H16V13a1,1,0,0,0-1-1H9a1,1,0,0,0-1,1v7H5V11.58l7-7.15,7,7.19Z"/></g></g></g></svg>
